flaticon/technology/mouse-4.svg

<svg xmlns="http://www.w3.org/2000/svg" width="32" height="32" viewBox="0 0 24 24">
    <path d="M 19.242188 17.679688 C 19.320312 17.398438 19.386719 17.109375 19.4375 16.8125 C 19.4375 16.808594 19.441406 16.800781 19.441406 16.792969 C 19.492188 16.503906 19.53125 16.214844 19.554688 15.917969 C 19.558594 15.910156 19.558594 15.902344 19.558594 15.894531 C 19.582031 15.601562 19.597656 15.300781 19.597656 15 C 19.597656 13.894531 19.421875 12.804688 19.070312 11.765625 L 19.320312 10.433594 C 19.332031 10.386719 19.335938 10.339844 19.34375 10.292969 L 19.359375 10.207031 C 19.359375 10.207031 19.359375 10.203125 19.359375 10.203125 C 19.757812 7.894531 19.667969 5.484375 19.085938 3.210938 C 18.878906 1.824219 17.773438 0.726562 16.382812 0.527344 C 15.109375 0.167969 13.78125 -0.00390625 12.414062 0.00390625 C 12.410156 0.00390625 12.402344 0 12.398438 0 C 12.386719 0 12.378906 0.00390625 12.371094 0.00390625 C 11.085938 0.015625 9.765625 0.1875 8.414062 0.527344 C 7.023438 0.722656 5.914062 1.824219 5.707031 3.214844 C 5.441406 4.273438 5.605469 5.542969 5.78125 6.886719 C 5.871094 7.589844 5.96875 8.320312 5.992188 9 C 6.03125 10.234375 5.894531 11.429688 5.578125 12.554688 C 5.472656 12.9375 5.300781 13.34375 5.117188 13.773438 C 4.765625 14.617188 4.398438 15.484375 4.398438 16.398438 C 4.398438 21.089844 7.234375 24 11.796875 24 C 15.007812 24 17.773438 21.75 18.964844 18.542969 C 18.964844 18.542969 18.96875 18.539062 18.96875 18.539062 C 18.96875 18.535156 18.972656 18.53125 18.972656 18.527344 C 19.074219 18.253906 19.164062 17.976562 19.238281 17.695312 C 19.242188 17.6875 19.242188 17.683594 19.242188 17.679688 Z M 18.761719 15.816406 C 18.753906 15.910156 18.738281 16.003906 18.726562 16.101562 C 18.707031 16.269531 18.6875 16.441406 18.660156 16.609375 C 18.636719 16.734375 18.609375 16.859375 18.582031 16.984375 C 18.554688 17.113281 18.527344 17.246094 18.496094 17.375 C 18.457031 17.523438 18.410156 17.664062 18.363281 17.808594 C 18.335938 17.898438 18.3125 17.992188 18.28125 18.078125 C 17.839844 18.210938 17.226562 18.320312 16.972656 18.039062 C 16.289062 17.277344 17.507812 14.324219 18.40625 12.335938 C 18.425781 12.398438 18.445312 12.460938 18.460938 12.527344 C 18.488281 12.621094 18.511719 12.714844 18.535156 12.808594 C 18.570312 12.957031 18.601562 13.105469 18.628906 13.253906 C 18.648438 13.347656 18.664062 13.4375 18.679688 13.53125 C 18.707031 13.695312 18.722656 13.859375 18.742188 14.019531 C 18.75 14.101562 18.761719 14.183594 18.765625 14.261719 C 18.785156 14.507812 18.796875 14.753906 18.796875 15 C 18.796875 15.273438 18.785156 15.546875 18.761719 15.816406 Z M 12.398438 8 C 12.175781 8 11.996094 7.820312 11.996094 7.601562 L 11.996094 4.398438 C 11.996094 4.179688 12.175781 4 12.398438 4 C 12.617188 4 12.796875 4.179688 12.796875 4.398438 L 12.796875 7.601562 C 12.796875 7.820312 12.617188 8 12.398438 8 Z M 6.636719 11.464844 C 7.054688 13.332031 7.355469 15.496094 6.652344 16.089844 C 6.324219 16.363281 5.738281 16.222656 5.230469 16.011719 C 5.316406 15.375 5.59375 14.714844 5.859375 14.078125 C 6.050781 13.625 6.230469 13.199219 6.347656 12.769531 C 6.425781 12.5 6.484375 12.230469 6.542969 11.953125 C 6.558594 11.878906 6.570312 11.800781 6.585938 11.722656 C 6.601562 11.636719 6.621094 11.550781 6.636719 11.464844 Z M 11.796875 23.199219 C 7.816406 23.199219 5.386719 20.835938 5.214844 16.855469 C 5.5625 16.976562 5.886719 17.042969 6.171875 17.042969 C 6.566406 17.042969 6.894531 16.929688 7.164062 16.703125 C 8.464844 15.613281 7.75 12.277344 6.78125 8.824219 C 6.75 8.152344 6.660156 7.457031 6.574219 6.78125 C 6.40625 5.507812 6.25 4.308594 6.484375 3.390625 C 6.488281 3.378906 6.492188 3.363281 6.492188 3.347656 C 6.644531 2.292969 7.488281 1.457031 8.542969 1.316406 C 8.558594 1.316406 8.574219 1.3125 8.589844 1.308594 C 9.75 1.015625 10.886719 0.859375 11.996094 0.820312 L 11.996094 3.273438 C 11.53125 3.441406 11.195312 3.878906 11.195312 4.402344 L 11.195312 7.601562 C 11.195312 8.121094 11.53125 8.5625 11.996094 8.726562 L 11.996094 10.800781 C 11.996094 11.019531 12.175781 11.199219 12.398438 11.199219 C 12.617188 11.199219 12.796875 11.019531 12.796875 10.800781 L 12.796875 8.726562 C 13.261719 8.5625 13.597656 8.121094 13.597656 7.601562 L 13.597656 4.398438 C 13.597656 3.878906 13.261719 3.4375 12.796875 3.273438 L 12.796875 0.808594 C 13.964844 0.832031 15.101562 0.996094 16.191406 1.304688 C 16.210938 1.3125 16.230469 1.3125 16.25 1.316406 C 17.304688 1.457031 18.148438 2.292969 18.300781 3.347656 C 18.300781 3.363281 18.304688 3.378906 18.308594 3.390625 C 18.859375 5.546875 18.949219 7.832031 18.578125 10.023438 C 18.449219 10.320312 18.28125 10.691406 18.082031 11.113281 C 16.578125 14.371094 15.316406 17.394531 16.375 18.574219 C 16.640625 18.867188 17.011719 19.015625 17.492188 19.015625 C 17.625 19.015625 17.765625 19 17.910156 18.980469 C 16.714844 21.492188 14.425781 23.199219 11.796875 23.199219 Z M 11.796875 23.199219"/>
    <path d="M 11.996094 15.601562 C 10.894531 15.601562 9.996094 16.496094 9.996094 17.601562 C 9.996094 18.703125 10.894531 19.601562 11.996094 19.601562 C 13.101562 19.601562 13.996094 18.703125 13.996094 17.601562 C 13.996094 16.496094 13.101562 15.601562 11.996094 15.601562 Z M 11.996094 18.800781 C 11.335938 18.800781 10.796875 18.261719 10.796875 17.601562 C 10.796875 16.9375 11.335938 16.398438 11.996094 16.398438 C 12.660156 16.398438 13.195312 16.9375 13.195312 17.601562 C 13.195312 18.261719 12.660156 18.800781 11.996094 18.800781 Z M 11.996094 18.800781"/>
</svg>

<svg xmlns="http://www.w3.org/2000/svg" width="32" height="32" viewBox="0 0 24 24">
    <path d="M19.242 17.68c.078-.282.145-.57.195-.867 0-.004.004-.012.004-.02.051-.29.09-.578.114-.875.004-.008.004-.016.004-.023a10.076 10.076 0 0 0-.488-4.129l.25-1.332c.011-.047.015-.094.023-.141l.015-.086v-.004a16.82 16.82 0 0 0-.273-6.992A3.199 3.199 0 0 0 16.383.527a14.265 14.265 0 0 0-3.969-.523L12.398 0c-.011 0-.02.004-.027.004a16.827 16.827 0 0 0-3.957.523 3.199 3.199 0 0 0-2.707 2.688c-.266 1.058-.102 2.328.074 3.672.09.703.188 1.433.211 2.113.04 1.234-.097 2.43-.414 3.555-.105.383-.277.789-.46 1.218-.352.844-.72 1.711-.72 2.625C4.398 21.09 7.234 24 11.797 24c3.21 0 5.976-2.25 7.168-5.457l.004-.004c0-.004.004-.008.004-.012.101-.273.191-.55.265-.832.004-.008.004-.011.004-.015zm-.48-1.864c-.008.094-.024.188-.035.286-.02.168-.04.34-.067.507-.023.125-.05.25-.078.375-.027.13-.055.262-.086.391-.039.148-.086.29-.133.434-.027.09-.05.183-.082.27-.441.132-1.054.241-1.308-.04-.684-.762.535-3.715 1.433-5.703.02.062.04.125.055.191a7.468 7.468 0 0 1 .168.727c.02.094.035.184.05.277.028.164.044.328.063.489.008.082.02.164.024.242a9.331 9.331 0 0 1-.004 1.554zM12.398 8a.401.401 0 0 1-.402-.398V4.398a.401.401 0 0 1 .8 0v3.204a.4.4 0 0 1-.398.398zm-5.761 3.465c.418 1.867.718 4.031.015 4.625-.328.273-.914.133-1.422-.078.086-.637.364-1.297.63-1.934.19-.453.37-.879.488-1.308.078-.27.136-.54.195-.817.016-.074.027-.152.043-.23.016-.086.035-.172.05-.258zm5.16 11.734c-3.98 0-6.41-2.363-6.582-6.344.348.122.672.188.957.188.394 0 .723-.113.992-.34 1.3-1.09.586-4.426-.383-7.879-.031-.672-.12-1.367-.207-2.043-.168-1.273-.324-2.472-.09-3.39a2.403 2.403 0 0 1 2.059-2.074c.016 0 .031-.005.047-.008 1.16-.293 2.297-.45 3.406-.489v2.453c-.465.168-.8.606-.8 1.13v3.199c0 .52.335.96.8 1.125V10.8a.401.401 0 0 0 .8 0V8.727c.466-.165.802-.606.802-1.125V4.398c0-.52-.336-.96-.801-1.125V.81c1.168.023 2.305.187 3.394.496.02.008.04.008.059.011a2.403 2.403 0 0 1 2.059 2.075c.55 2.156.64 4.441.27 6.632-.13.297-.298.668-.497 1.09-1.504 3.258-2.766 6.282-1.707 7.461.266.293.637.442 1.117.442.133 0 .274-.016.418-.036-1.195 2.512-3.484 4.22-6.113 4.22zm0 0"/>
    <path d="M11.996 15.602c-1.101 0-2 .894-2 2 0 1.101.899 2 2 2a1.999 1.999 0 1 0 0-4zm0 3.199a1.202 1.202 0 0 1 0-2.403 1.2 1.2 0 0 1 0 2.403zm0 0"/>
</svg>
